icons/lines/message-time.svg

<svg xmlns="http://www.w3.org/2000/svg" width="24" height="24" viewBox="0 0 24 24" fill="none" stroke="currentColor" stroke-width="2" stroke-linecap="round" stroke-linejoin="round">
  <path d="M22 13.43c0 1.5-.5 2.75-1.38 3.63-.87.87-2.12 1.37-3.62 1.37v2.13a1 1 0 0 1-1.55.84L11 18.43H8.88A3.6 3.6 0 0 0 9 17.5a4 4 0 0 0-6.87-2.79A6 6 0 0 1 2 13.43v-6c0-3 2-5 5-5h10c3 0 5 2 5 5z" />
  <path d="M5.25 16.25v1.5L4 18.5" />
  <path d="M8.5 10.5h7" />
  <circle cx="5" cy="17.5" r="4" />
</svg>

<svg xmlns="http://www.w3.org/2000/svg" width="24" height="24" viewBox="0 0 24 24" fill="none" stroke="currentColor" stroke-width="2" stroke-linecap="round" stroke-linejoin="round" >
  <path d="M22 7.42999V13.43C22 14.93 21.5 16.18 20.62 17.06C19.75 17.93 18.5 18.43 17 18.43V20.56C17 21.36 16.11 21.84 15.45 21.4L11 18.43H8.88C8.96 18.13 9 17.82 9 17.5C9 16.48 8.61 15.54 7.97 14.83C7.25 14.01 6.18 13.5 5 13.5C3.88 13.5 2.86 13.96 2.13 14.71C2.04 14.31 2 13.88 2 13.43V7.42999C2 4.42999 4 2.42999 7 2.42999H17C20 2.42999 22 4.42999 22 7.42999Z" stroke-miterlimit="10"/>
  <path d="M9 17.5C9 18.7 8.47001 19.77 7.64001 20.5C6.93001 21.12 6.01 21.5 5 21.5C2.79 21.5 1 19.71 1 17.5C1 16.24 1.58 15.11 2.5 14.38C3.19 13.83 4.06 13.5 5 13.5C7.21 13.5 9 15.29 9 17.5Z" stroke-miterlimit="10"/>
  <path d="M5.25 16.25V17.75L4 18.5" stroke-miterlimit="10"/>
  <path d="M8.5 10.5H15.5" stroke-miterlimit="10"/>
  </svg>
